X:1
T:the Lass o' Gowrie
T:the Lakes of Sligo
R:march
B:RSCDS Graded 1 #9
B:RSCDS Originally Ours p.146
B:Kerr, Merrie Melodies v.3 p.24 #377
Z:1997 by John Chambers <jc:trillian.mit.edu>
M:2/4
L:1/8
K:C
G/F/ \
| "C"EG GB | c>d cB \
| "F"A>G Ac | "G"d>e dG/F/ \
| "C"EG GB | "Am"c>d ed \
| "F"cA "C"Ge | "G7"d2 "C"c |]
c/d/ \
| "C"eg cd | e>f "(A7)"gf/e/ \
| "Dm"fa de | "G7"f>g ag/f/ \
| "C"eg "G7"de | "Am"c>d ed \
| "F"cA "C"Ge | "G7"d2 "C"c |]
